X:1
T:Partition sans titre
C:Compositeur / Arrangeur
L:1/8
M:4/4
I:linebreak $
K:G
V:1 treble nm="Violon" snm="Vln."
V:1
 Bd |"G" g2 fg"C" ecAF |"G" GABd g2 fg |"C" ecAF"G" G2 BG | AGBG"D" DFAF | DFAF"G" GA :: G2 | %7
"D" a3 g fddd | fgag fddB |"C" cBAG"D" FGAc |1"G" B2 G2 G2 :|2"G" B2 G2 GA |] %12
